X:24
T:Gan Ainm
R:Reel
S:Johnny McGreevy, Chicago (fiddle)
D:From RTE 'The Pure Drop'
N:As played
M:4/4
Z:Bernie Stocks
K:G
d |: {e}dcBG DGBd | {e}dcBd (3cdc Bd | {e}dcBG DGBd | {d}cAFA (3cdc Bc :|
dg~g2 defd | {e}dgfd (3cBc Bc | dg~g2 defd | cAFA (3cdc Bc |
dg~g2 defd | dgfa ~g3a | (3bag ag {a}gfde | fdAB (3cdc Bd ||
<end>
<start>
